X:520
T: Bill the Weaver's #2
S: "Johnny O'Leary of Sliabh Luachra" (#211)
Z: B.Black
L: 1/8
M: 6/8
R: jig
K: D
dAF EFE|DFD A,2A,|FEF BA^G|dAF EFA|
dAF EFE|D/E/FD A,CG|FEF BAF|1 EDC D z2 :|2\
EDC Dzc||
dcd fef|afd edB|AGA DFA|BAF EFA|
Azd fef|afd edB|A/G/AB AFA|Bdc ddA|
d2e fdd|add edB|AGA DFA|BAF EFA|
Azd fef|afd edB|A/G/AB AFA|Bdc d z2 ||
